public/shadcn.svg

<svg width="630" height="120" viewBox="0 0 630 120" fill="none" xmlns="http://www.w3.org/2000/svg">
<path d="M111.095 58.9198L58.9201 111.095C58.0209 112.089 57.5381 113.391 57.5717 114.731C57.6053 116.071 58.1526 117.347 59.1004 118.295C60.0483 119.242 61.3242 119.79 62.6642 119.823C64.0043 119.857 65.306 119.374 66.3001 118.475L118.475 66.2998C119.374 65.3057 119.857 64.004 119.823 62.664C119.79 61.3239 119.243 60.048 118.295 59.1002C117.347 58.1523 116.071 57.605 114.731 57.5714C113.391 57.5379 112.089 58.0206 111.095 58.9198ZM100.66 1.52484L1.52508 100.66C0.62587 101.654 0.143124 102.956 0.176689 104.296C0.210254 105.636 0.757561 106.912 1.70542 107.86C2.65327 108.807 3.92917 109.355 5.26922 109.388C6.60927 109.422 7.91096 108.939 8.90508 108.04L108.04 8.90484C108.939 7.91072 109.422 6.60903 109.388 5.26897C109.355 3.92892 108.808 2.65303 107.86 1.70517C106.912 0.757317 105.636 0.21001 104.296 0.176445C102.956 0.14288 101.654 0.625626 100.66 1.52484Z" fill="white"/>
<path d="M196.712 95.1638C191.539 95.1638 187.109 94.4202 183.423 92.9328C179.737 91.4455 176.924 89.4085 174.984 86.8218C173.109 84.1705 172.042 81.0988 171.783 77.6068L186.527 77.1218C186.98 79.6438 188.014 81.5838 189.631 82.9418C191.312 84.2352 193.705 84.8818 196.809 84.8818C199.46 84.8818 201.497 84.4615 202.92 83.6208C204.343 82.7155 205.054 81.4222 205.054 79.7408C205.054 78.5768 204.763 77.6392 204.181 76.9278C203.664 76.2165 202.629 75.6022 201.077 75.0848C199.59 74.5028 197.391 73.9855 194.481 73.5328C188.984 72.6275 184.684 71.5282 181.58 70.2348C178.476 68.8768 176.277 67.1955 174.984 65.1908C173.691 63.1215 173.044 60.5672 173.044 57.5278C173.044 52.4192 175.016 48.3775 178.961 45.4028C182.906 42.3635 188.629 40.8438 196.13 40.8438C203.179 40.8438 208.675 42.4605 212.62 45.6938C216.629 48.9272 218.957 53.2598 219.604 58.6918L205.054 59.2738C204.731 56.7518 203.761 54.7795 202.144 53.3568C200.592 51.8695 198.523 51.1258 195.936 51.1258C193.414 51.1258 191.442 51.6755 190.019 52.7748C188.661 53.8095 187.982 55.1998 187.982 56.9458C187.982 58.2392 188.273 59.3062 188.855 60.1468C189.502 60.9228 190.504 61.5695 191.862 62.0868C193.285 62.6042 195.225 63.0245 197.682 63.3478C203.243 64.1885 207.641 65.2878 210.874 66.6458C214.107 67.9392 216.435 69.6205 217.858 71.6898C219.281 73.7592 219.992 76.3458 219.992 79.4498C219.992 84.4292 217.89 88.3092 213.687 91.0898C209.548 93.8058 203.89 95.1638 196.712 95.1638Z" fill="white"/>
<path d="M227.025 25.1298H241.575V54.1328H239.635C240.281 49.8002 242.092 46.5022 245.067 44.2388C248.041 41.9755 251.663 40.8438 255.931 40.8438C261.557 40.8438 265.889 42.6545 268.929 46.2758C271.968 49.8325 273.488 54.5855 273.488 60.5348V93.9998H258.938V64.0268C258.938 60.0822 258.323 57.1722 257.095 55.2968C255.866 53.3568 253.861 52.3868 251.081 52.3868C248.041 52.3868 245.681 53.4215 244 55.4908C242.383 57.5602 241.575 60.5348 241.575 64.4148V93.9998H227.025V25.1298Z" fill="white"/>
<path d="M298.769 95.1638C293.272 95.1638 288.843 93.9028 285.48 91.3808C282.182 88.8588 280.533 85.3992 280.533 81.0018C280.533 76.4752 281.923 72.9508 284.704 70.4288C287.485 67.9068 291.785 66.0638 297.605 64.8998L314.386 61.6018C314.386 58.2392 313.61 55.7172 312.058 54.0358C310.571 52.2898 308.372 51.4168 305.462 51.4168C302.746 51.4168 300.612 52.0635 299.06 53.3568C297.508 54.5855 296.473 56.4285 295.956 58.8858L281.406 58.2068C282.376 52.5162 284.93 48.2158 289.069 45.3058C293.208 42.3312 298.672 40.8438 305.462 40.8438C313.222 40.8438 319.074 42.6868 323.019 46.3728C326.964 50.0588 328.936 55.4585 328.936 62.5718V80.3228C328.936 81.7455 329.162 82.7155 329.615 83.2328C330.068 83.7502 330.811 84.0088 331.846 84.0088H333.301V93.9998C332.784 94.1292 332.008 94.2585 330.973 94.3878C330.003 94.5172 329.033 94.5818 328.063 94.5818C324.506 94.5818 321.661 93.6765 319.527 91.8658C317.458 90.0552 316.423 86.9512 316.423 82.5538L317.684 83.5238C316.714 87.0805 314.58 89.9258 311.282 92.0598C307.984 94.1292 303.813 95.1638 298.769 95.1638ZM302.261 85.1728C304.654 85.1728 306.755 84.7202 308.566 83.8148C310.441 82.8448 311.864 81.4545 312.834 79.6438C313.869 77.8332 314.386 75.6992 314.386 73.2418V70.7198L302.552 73.2418C300.159 73.6945 298.381 74.4705 297.217 75.5698C296.053 76.6045 295.471 77.9625 295.471 79.6438C295.471 81.4545 296.021 82.8448 297.12 83.8148C298.284 84.7202 299.998 85.1728 302.261 85.1728Z" fill="white"/>
<path d="M358.377 95.1638C354.109 95.1638 350.358 94.0645 347.125 91.8658C343.892 89.6025 341.402 86.4338 339.656 82.3598C337.975 78.2858 337.134 73.5005 337.134 68.0038C337.134 62.5072 338.007 57.7218 339.753 53.6478C341.499 49.5738 343.956 46.4375 347.125 44.2388C350.358 41.9755 354.109 40.8438 358.377 40.8438C362.063 40.8438 365.232 41.6198 367.883 43.1718C370.599 44.6592 372.668 46.7285 374.091 49.3798V25.1298H388.641V93.9998H374.673L374.382 86.3368C372.959 89.1175 370.825 91.2838 367.98 92.8358C365.199 94.3878 361.998 95.1638 358.377 95.1638ZM363.227 84.0088C365.555 84.0088 367.527 83.3945 369.144 82.1658C370.761 80.9372 371.989 79.1588 372.83 76.8308C373.671 74.4382 374.091 71.4958 374.091 68.0038C374.091 64.5118 373.671 61.5695 372.83 59.1768C371.989 56.7842 370.761 55.0058 369.144 53.8418C367.527 52.6132 365.555 51.9988 363.227 51.9988C359.8 51.9988 357.084 53.4538 355.079 56.3638C353.074 59.2092 352.072 63.0892 352.072 68.0038C352.072 72.8538 353.074 76.7338 355.079 79.6438C357.148 82.5538 359.864 84.0088 363.227 84.0088Z" fill="white"/>
<path d="M422.866 95.1638C417.628 95.1638 413.004 94.0645 408.995 91.8658C404.986 89.6025 401.882 86.4338 399.683 82.3598C397.549 78.2212 396.482 73.4358 396.482 68.0038C396.482 62.5718 397.549 57.8188 399.683 53.7448C401.882 49.6062 404.986 46.4375 408.995 44.2388C413.004 41.9755 417.628 40.8438 422.866 40.8438C427.457 40.8438 431.564 41.6522 435.185 43.2688C438.871 44.8855 441.846 47.2458 444.109 50.3498C446.372 53.3892 447.763 57.0105 448.28 61.2138L433.245 61.8928C432.792 58.7242 431.661 56.2992 429.85 54.6178C428.039 52.9365 425.711 52.0958 422.866 52.0958C419.245 52.0958 416.432 53.4862 414.427 56.2668C412.422 59.0475 411.42 62.9598 411.42 68.0038C411.42 73.1125 412.422 77.0572 414.427 79.8378C416.432 82.6185 419.245 84.0088 422.866 84.0088C425.711 84.0088 428.039 83.1358 429.85 81.3898C431.725 79.6438 432.857 77.0572 433.245 73.6298L448.28 74.2118C447.763 78.4152 446.372 82.1012 444.109 85.2698C441.91 88.4385 438.968 90.8958 435.282 92.6418C431.661 94.3232 427.522 95.1638 422.866 95.1638Z" fill="white"/>
<path d="M454.66 42.0078H467.755L468.337 57.2368L466.494 56.7518C467.205 51.2552 469.048 47.2458 472.023 44.7238C475.062 42.1372 478.878 40.8438 483.469 40.8438C489.03 40.8438 493.363 42.6222 496.467 46.1788C499.571 49.6708 501.123 54.4562 501.123 60.5348V93.9998H486.573V65.3848C486.573 60.9875 485.991 57.7218 484.827 55.5878C483.663 53.4538 481.594 52.3868 478.619 52.3868C475.58 52.3868 473.252 53.5185 471.635 55.7818C470.018 57.9805 469.21 61.1815 469.21 65.3848V93.9998H454.66V42.0078Z" fill="white"/>
<path d="M537.433 21.2498H551.789L523.077 104.67H508.721L537.433 21.2498Z" fill="white"/>
<path d="M575.177 95.1638C569.81 95.1638 565.607 93.4502 562.567 90.0228C559.593 86.5955 558.105 81.7455 558.105 75.4728V42.0078H572.655V72.0778C572.655 76.0872 573.27 79.0295 574.498 80.9048C575.727 82.7155 577.667 83.6208 580.318 83.6208C583.293 83.6208 585.589 82.5862 587.205 80.5168C588.887 78.4475 589.727 75.4082 589.727 71.3988V42.0078H604.277V93.9998H590.988L590.6 79.0618L592.443 79.4498C591.667 84.6232 589.824 88.5355 586.914 91.1868C584.004 93.8382 580.092 95.1638 575.177 95.1638Z" fill="white"/>
<path d="M614.327 42.0078H628.877V93.9998H614.327V42.0078ZM614.036 23.9658H629.071V35.6058H614.036V23.9658Z" fill="white"/>
</svg>

<svg xmlns="http://www.w3.org/2000/svg" width="630" height="120" fill="none"><path fill="#fff" d="M111.095 58.92 58.92 111.095a5.225 5.225 0 0 0 7.38 7.38L118.475 66.3a5.224 5.224 0 0 0-3.744-8.729 5.23 5.23 0 0 0-3.636 1.349M100.66 1.525 1.525 100.66a5.225 5.225 0 0 0 7.38 7.38L108.04 8.905a5.224 5.224 0 0 0-3.744-8.729 5.23 5.23 0 0 0-3.636 1.349M196.712 95.164q-7.76 0-13.289-2.231-5.529-2.232-8.439-6.111-2.813-3.977-3.201-9.215l14.744-.485q.679 3.783 3.104 5.82 2.522 1.94 7.178 1.94 3.977 0 6.111-1.261 2.134-1.358 2.134-3.88 0-1.746-.873-2.813-.776-1.068-3.104-1.843-2.23-.873-6.596-1.552-8.245-1.359-12.901-3.298-4.656-2.038-6.596-5.044-1.94-3.105-1.94-7.663 0-7.663 5.917-12.125 5.918-4.56 17.169-4.56 10.573 0 16.49 4.85 6.013 4.851 6.984 12.999l-14.55.582q-.484-3.783-2.91-5.917-2.328-2.23-6.208-2.231-3.783 0-5.917 1.649-2.037 1.552-2.037 4.17 0 1.94.873 3.202.97 1.163 3.007 1.94 2.135.776 5.82 1.26 8.342 1.262 13.192 3.299 4.85 1.94 6.984 5.044 2.134 3.105 2.134 7.76 0 7.47-6.305 11.64-6.208 4.074-16.975 4.074M227.025 25.13h14.55v29.003h-1.94q.97-6.499 5.432-9.894t10.864-3.395q8.439 0 12.998 5.432 4.559 5.336 4.559 14.259V94h-14.55V64.027q0-5.918-1.843-8.73-1.844-2.91-6.014-2.91-4.56 0-7.081 3.104-2.425 3.104-2.425 8.924V94h-14.55zM298.769 95.164q-8.245 0-13.289-3.783-4.947-3.783-4.947-10.38 0-6.789 4.171-10.572t12.901-5.53l16.781-3.297q0-5.044-2.328-7.566-2.23-2.62-6.596-2.62-4.074.001-6.402 1.94-2.328 1.844-3.104 5.53l-14.55-.68q1.455-8.535 7.663-12.9 6.208-4.462 16.393-4.462 11.64 0 17.557 5.529 5.917 5.53 5.917 16.199v17.75q0 2.136.679 2.91.679.777 2.231.777h1.455v9.99q-.776.195-2.328.389-1.455.195-2.91.194-5.335 0-8.536-2.716-3.104-2.716-3.104-9.312l1.261.97q-1.455 5.335-6.402 8.536-4.947 3.105-12.513 3.104m3.492-9.991q3.589 0 6.305-1.358 2.813-1.455 4.268-4.171 1.552-2.716 1.552-6.402V70.72l-11.834 2.522q-3.59.679-5.335 2.328-1.746 1.552-1.746 4.074 0 2.715 1.649 4.17 1.746 1.359 5.141 1.359M358.377 95.164q-6.402 0-11.252-3.298-4.85-3.395-7.469-9.506-2.522-6.111-2.522-14.356t2.619-14.356 7.372-9.41q4.85-3.394 11.252-3.394 5.53 0 9.506 2.328 4.074 2.231 6.208 6.208V25.13h14.55V94h-13.968l-.291-7.663q-2.135 4.17-6.402 6.499-4.172 2.328-9.603 2.328m4.85-11.155q3.492 0 5.917-1.843t3.686-5.335q1.261-3.59 1.261-8.827 0-5.239-1.261-8.827-1.261-3.59-3.686-5.335-2.425-1.843-5.917-1.843-5.14 0-8.148 4.365-3.007 4.267-3.007 11.64 0 7.275 3.007 11.64 3.103 4.365 8.148 4.365M422.866 95.164q-7.857 0-13.871-3.298-6.014-3.395-9.312-9.506-3.201-6.208-3.201-14.356t3.201-14.26q3.298-6.207 9.312-9.505 6.014-3.395 13.871-3.395 6.887 0 12.319 2.425 5.53 2.425 8.924 7.08 3.395 4.56 4.171 10.865l-15.035.679q-.679-4.753-3.395-7.275t-6.984-2.522q-5.431 0-8.439 4.17-3.007 4.172-3.007 11.738 0 7.662 3.007 11.834 3.008 4.17 8.439 4.17 4.268 0 6.984-2.618 2.813-2.62 3.395-7.76l15.035.582q-.776 6.305-4.171 11.058-3.298 4.753-8.827 7.372-5.432 2.522-12.416 2.522M454.66 42.008h13.095l.582 15.229-1.843-.485q1.067-8.245 5.529-12.028 4.559-3.88 11.446-3.88 8.342 0 12.998 5.335 4.656 5.238 4.656 14.356V94h-14.55V65.385q0-6.596-1.746-9.797t-6.208-3.201q-4.558 0-6.984 3.395-2.425 3.298-2.425 9.603V94h-14.55zM537.433 21.25h14.356l-28.712 83.42h-14.356zM575.177 95.164q-8.05 0-12.61-5.141-4.462-5.14-4.462-14.55V42.008h14.55v30.07q0 6.014 1.843 8.827 1.843 2.716 5.82 2.716 4.463 0 6.887-3.104 2.523-3.105 2.522-9.118V42.008h14.55V94h-13.289l-.388-14.938 1.843.388q-1.164 7.76-5.529 11.737t-11.737 3.977M614.327 42.008h14.55V94h-14.55zm-.291-18.042h15.035v11.64h-15.035z"/></svg>
